X:1
P: Paresis
C: trad., Winston Fitzgerald Colln, arr. T. Traub 7-5-2000
M: C
R: reel
L: 1/8
K: Gm
|: "Gm"BAGF DGGB|"F"AFcF dFcF|"Gm"BAGF DGGA|"D"BdcA "Gm"BGGA :| "Gm"G2 g2 g2 ga|"Gm"bga^f gdBG|
"F"F2 =f2 f=efg |afg=e fcAF|"Gm"G2 g2 g^fga|bga^f g2 d=e|"Bb"f=efd "F"cAFA |"D"BGA^F "Gm"G2 "F"A2 |]
